img/svg/advantages-image-5.svg

<svg width="75" height="74" viewBox="0 0 75 74" fill="none" xmlns="http://www.w3.org/2000/svg">
<g clip-path="url(#clip0)">
<path d="M8.14023 54.9726H14.2475V64.7442C14.2529 69.4642 18.0777 73.289 22.7977 73.2944H53.334C53.9412 73.2944 54.4565 72.8477 54.543 72.2465L54.9634 69.2978C55.4692 65.7921 56.7485 62.4427 58.7083 59.4916C61.5795 55.1957 63.1098 50.1434 63.1057 44.9761V35.4293C63.1057 34.7631 62.5719 34.2198 61.9057 34.2079L67.9092 18.6319C68.0094 18.3731 68.0177 18.0874 67.9336 17.8232L64.7273 7.70982C64.6152 7.35615 64.3486 7.07285 64.0021 6.93926C63.6562 6.80626 63.2679 6.83727 62.9476 7.02454L53.7796 12.3732C53.5404 12.5109 53.3555 12.7269 53.2553 12.9839L52.0339 16.1598C52.5301 11.4851 50.7396 6.85934 47.2268 3.73592C43.2308 0.159826 37.6013 -0.949503 32.5478 0.844509C27.4938 2.63792 23.8235 7.0484 22.9772 12.344C22.9194 12.7102 22.9074 13.0763 22.8782 13.4515L21.7886 10.5583C21.5512 9.92669 20.8468 9.60701 20.2152 9.84439L8.03109 14.4278C7.40009 14.6652 7.08041 15.3696 7.31778 16.0006L14.4097 34.8466C14.3823 34.8878 14.3566 34.9307 14.334 34.9749L7.00526 53.2967C6.85437 53.673 6.90029 54.1 7.12752 54.4358C7.35476 54.7716 7.73408 54.9726 8.14023 54.9726ZM59.2898 34.2079H54.7994L61.2806 17.392L65.1889 18.8979L59.2898 34.2079ZM62.8611 9.90104L64.8388 16.1413L57.206 13.1986L62.8611 9.90104ZM55.0964 15.0051L59.0047 16.5111L52.183 34.2079H47.6944L55.0964 15.0051ZM45.0767 34.2079H44.7839V30.222C44.8244 28.5103 45.6147 26.903 46.9441 25.8247C47.8214 25.0744 48.6069 24.2239 49.2856 23.2905L45.0767 34.2079ZM25.3915 12.7102C26.2915 7.32931 30.6268 3.18364 36.0428 2.5258C41.3837 1.9097 46.4997 4.85837 48.6438 9.78892C50.788 14.7195 49.4556 20.4725 45.3624 23.9585C43.733 25.3088 42.6732 27.2239 42.3946 29.322H41.1195V19.9166L43.3566 16.56C43.6047 16.1855 43.6274 15.7047 43.4151 15.3087C43.2028 14.9127 42.79 14.6652 42.341 14.6646H32.5693C32.1184 14.6646 31.7045 14.9127 31.4916 15.3099C31.2793 15.7071 31.3025 16.189 31.553 16.5642L33.7908 19.9166V29.322H32.5007C32.2699 27.2793 31.2644 25.4036 29.691 24.0808C26.3344 21.3271 24.6967 16.996 25.3915 12.7102ZM36.0279 18.8699L34.8518 17.1075H40.0579L38.8818 18.8723C38.7482 19.0733 38.6766 19.3089 38.6766 19.5504V29.322H36.2337V19.5504C36.2331 19.3089 36.1615 19.0733 36.0279 18.8723V18.8699ZM42.341 31.765V34.2079H32.5693V31.765H42.341ZM30.1264 30.5435V32.7139L27.2875 25.1692C27.566 25.4388 27.8332 25.7173 28.1427 25.9678C29.4608 27.1153 30.1896 28.7972 30.1264 30.5435ZM14.1396 27.1929L17.087 26.0841L16.2324 23.7975L13.2849 24.9062L12.0927 21.7381L17.7663 19.6029L16.9111 17.3162L11.2362 19.4514L10.044 16.2845L19.9379 12.5587L28.0777 34.2079H16.7793L16.1918 32.6471L21.8667 30.5119L21.0114 28.2252L15.3318 30.3604L14.1396 27.1929ZM16.2956 36.6508H60.6628V44.9761C60.6669 49.6609 59.2803 54.2414 56.6781 58.1372C54.5155 61.3906 53.1038 65.0842 52.5462 68.9507L52.2748 70.8515H22.7977C19.4262 70.8473 16.694 68.1152 16.6904 64.7442V60.9982C19.3677 60.626 21.8106 59.2715 23.545 57.1978L23.7245 56.9891L21.8703 55.4014L21.6907 55.6114C20.4228 57.1453 18.6502 58.1789 16.6904 58.526V53.7511C16.6904 53.0766 16.1435 52.5297 15.469 52.5297H9.94379L16.2956 36.6508Z" fill="#2D486B"/>
<path d="M56.9984 44.9761H54.5555C54.5591 48.6966 53.4575 52.3341 51.3903 55.4271L53.4229 56.7815C55.7579 53.2877 57.0026 49.1785 56.9984 44.9761Z" fill="#2D486B"/>
<path d="M54.5555 40.3152H56.9984V42.8595H54.5555V40.3152Z" fill="#2D486B"/>
<path d="M24.0193 50.0868C26.7175 50.0868 28.9051 47.8992 28.9051 45.201C28.9051 42.5028 26.7175 40.3152 24.0193 40.3152C21.3205 40.3152 19.1335 42.5028 19.1335 45.201C19.1335 47.8992 21.3205 50.0868 24.0193 50.0868ZM24.0193 42.7581C25.3684 42.7581 26.4622 43.8519 26.4622 45.201C26.4622 46.5501 25.3684 47.6439 24.0193 47.6439C22.6696 47.6439 21.5764 46.5501 21.5764 45.201C21.5764 43.8519 22.6696 42.7581 24.0193 42.7581Z" fill="#2D486B"/>
<path d="M35.3601 7.6401L34.6641 5.29858C33.8769 5.53238 33.1224 5.86518 32.4192 6.28923L33.6794 8.38144C34.2061 8.06415 34.7709 7.81485 35.3601 7.6401Z" fill="#2D486B"/>
<path d="M32.2199 9.53426L30.4754 7.82434C29.0171 9.30345 28.073 11.212 27.782 13.2684L30.2004 13.6155C30.4193 12.0738 31.1266 10.643 32.2199 9.53426Z" fill="#2D486B"/>
</g>
<defs>
<clipPath id="clip0">
<rect x="0.803223" width="73.2943" height="73.2943" fill="white"/>
</clipPath>
</defs>
</svg>

<svg width="75" height="74" viewBox="0 0 75 74" fill="none" xmlns="http://www.w3.org/2000/svg"><g clip-path="url(#clip0)" fill="#2D486B"><path d="M8.14 54.973h6.107v9.771a8.56 8.56 0 008.55 8.55h30.537c.607 0 1.122-.446 1.209-1.047l.42-2.95a23.894 23.894 0 013.745-9.805 26.085 26.085 0 004.398-14.516V35.43c0-.666-.534-1.21-1.2-1.221l6.003-15.576c.1-.259.109-.545.025-.809L64.727 7.71a1.221 1.221 0 00-1.78-.685l-9.167 5.348c-.24.138-.425.354-.525.61l-1.221 3.177a14.567 14.567 0 00-4.807-12.424 14.658 14.658 0 00-24.25 8.608c-.058.366-.07.732-.099 1.107l-1.09-2.893a1.222 1.222 0 00-1.573-.714L8.031 14.428c-.63.237-.95.942-.713 1.573l7.092 18.846a1.308 1.308 0 00-.076.128L7.005 53.297a1.222 1.222 0 001.135 1.676zm51.15-20.765H54.8l6.48-16.816 3.909 1.506-5.9 15.31zM62.86 9.9l1.978 6.24-7.633-2.942L62.861 9.9zm-7.765 5.104l3.909 1.506-6.822 17.697h-4.489l7.402-19.203zm-10.02 19.203h-.292v-3.986a5.84 5.84 0 012.16-4.397 14.77 14.77 0 002.342-2.534l-4.21 10.917zM25.393 12.71c.9-5.38 5.235-9.526 10.65-10.184a12.215 12.215 0 019.32 21.433 8.402 8.402 0 00-2.967 5.363H41.12v-9.405l2.238-3.357a1.221 1.221 0 00-1.016-1.895H32.57a1.223 1.223 0 00-1.016 1.9l2.238 3.352v9.405H32.5a8.024 8.024 0 00-2.81-5.241 12.185 12.185 0 01-4.3-11.37zm10.636 6.16l-1.176-1.762h5.206l-1.176 1.764a1.225 1.225 0 00-.205.678v9.772h-2.443V19.55a1.23 1.23 0 00-.206-.678v-.002zm6.313 12.895v2.443H32.57v-2.443h9.772zm-12.215-1.221v2.17l-2.838-7.545c.278.27.545.548.855.799a5.79 5.79 0 011.983 4.576zM14.14 27.193l2.947-1.109-.855-2.287-2.947 1.11-1.192-3.169 5.673-2.135-.855-2.287-5.675 2.135-1.192-3.166 9.894-3.726 8.14 21.649H16.779l-.587-1.56 5.675-2.136-.856-2.287-5.68 2.135-1.191-3.167zm2.156 9.458h44.367v8.325a23.657 23.657 0 01-3.985 13.161 26.32 26.32 0 00-4.132 10.814l-.271 1.9H22.798a6.115 6.115 0 01-6.108-6.107v-3.746a10.89 10.89 0 006.855-3.8l.18-.209-1.855-1.588-.18.21a8.386 8.386 0 01-5 2.915v-4.775c0-.674-.547-1.221-1.221-1.221H9.944l6.352-15.88z"/><path d="M56.998 44.976h-2.442a18.775 18.775 0 01-3.166 10.451l2.033 1.355a21.209 21.209 0 003.575-11.806zm-2.442-4.661h2.442v2.544h-2.442v-2.544zM24.02 50.087a4.886 4.886 0 10-.001-9.772 4.886 4.886 0 000 9.772zm0-7.329a2.443 2.443 0 110 4.886 2.443 2.443 0 010-4.886zM35.36 7.64l-.696-2.34a9.69 9.69 0 00-2.245.99l1.26 2.092a7.256 7.256 0 011.681-.74zm-3.14 1.894l-1.745-1.71a9.687 9.687 0 00-2.693 5.444l2.418.348a7.267 7.267 0 012.02-4.082z"/></g><defs><clipPath id="clip0"><path fill="#fff" d="M.803 0h73.294v73.294H.803z"/></clipPath></defs></svg>
